X:1
T:I Am Happy
T:I Am Happy
T:James M. Dungan
T:John McPhail, 1892
T:Public Domain Courtesy of the Cyber Hymnal™
C:James M. Dungan
Z:Public Domain
Z:Courtesy of the Cyber Hymnal™
%%score ( 1 2 ) ( 3 4 )
L:1/8
Q:1/4=105
M:4/4
K:Ab
V:1 treble 
V:2 treble 
V:3 bass 
V:4 bass 
V:1
 [CE]2 ([Ec]>[DB]) [CA]2 [CE]2 | [DG]2 [DF]2 [CE]2 [EA]2 | [EA]3 [EA] [FA]2 [FA]2 | %3
w: 1.~I am * on my|way to glo- ry,|Free from all my|
w: 2.~I have * on the|wed- ding gar- ment,|I am now pre-|
w: 3.~I am * hap- py,|oh so hap- py,|I can on- ly|
w: 4.~Come to * Je- sus,|taste the plea- sure|To be found a-|
 [AB]2 [Ac]2 [GB]4 | E2 ([Ec]>[DB]) [CA]2 [CE]2 | [DG]2 [DF]2 [CE]2 [EA]2 | %6
w: load of sin;|I am * blest with|full sal- va- tion,|
w: pared to go;|Hal- le- * lu- jah!|Je- sus saves me,|
w: praise the Lord,|For my * tongue can|not ex- plain it,|
w: lone in Him;|There is * joy be-|yond all mea- sure,|
 [Ec]3 [EA] [DF]2 [FB]2 | [EA]2 [EG]2 [EA]4 ||"^Refrain" [Ec]3 [Ec] [Ec][EB][EB][Ec] | [EA]8 | %10
w: With my Lord en-|throned with- in.|||
w: Saves me ful- ly,|this I know.|Hal- le- lu- jah! I am|saved,|
w: Glo- ry, glo- ry|be to God!|||
w: In the par- don|of all sin.|||
 [FA]3 [FA] [FB][FA] [FA]>[DF] | [CE]6 [CE]>[EA] | [Ec]2 [Ec]2 [Fc]3 [Fc] | %13
w: |||
w: I have glo- ry in my|soul! Thro’ the|pre- cious blood of|
w: |||
w: |||
 [FB]2 [Fc]2 [Fd]2 [DF]>[FB] | E2 ([EA]>[EB]) [Ec]2 [EB]2 | [EA]6 z2 |] %16
w: |||
w: Christ our Lord, I am|ev- ery * whit made|whole.|
w: |||
w: |||
V:2
 x8 | x8 | x8 | x8 | E2 x6 | x8 | x8 | x8 || x8 | x8 | x8 | x8 | x8 | x8 | E2 x6 | x8 |] %16
V:3
 [A,,A,]2 [A,,A,]2 [A,,A,]2 [A,,A,]2 | [D,A,]2 [D,A,]2 [A,,A,]2 [A,,C]2 | %2
 [A,C]3 [A,C] [F,C]2 [F,C]2 | [B,,=D]2 [B,,D]2 [E,E]4 | [A,C]2 A,2 [A,,A,]2 [A,,A,]2 | %5
 [D,A,]2 [D,A,]2 [A,,A,]2 [A,,C]2 | [A,,A,]3 [C,A,] [D,A,]2 [B,,D]2 | [E,C]2 [E,B,]2 [A,,C]4 || %8
 A,2 (A,C) [G,D][G,D][E,D][E,D] | C8 | [D,A,]3 [D,D] [D,D][D,D] [D,D]>[D,A,] | A,6 A,>[A,C] | %12
 A,2 A,2 [F,A,]3 [F,A,] | [D,D]2 [C,E]2 [B,,F]2 [D,D]>[D,D] | [E,C]2 (C>D) [E,E]2 [E,D]2 | %15
 [G,,C]6 z2 |] %16
V:4
 x8 | x8 | x8 | x8 | x2 A,2 x4 | x8 | x8 | x8 || A,2 E,2 x4 | (A,2 E,>E, C,2 A,,2) | x8 | %11
 (A,,2 C,>E, A,2) A,3/2 x/ | A,2 A,2 x4 | x8 | x2 E,2 x4 | x8 |] %16

